material/.icons/material/clock-check-outline.svg

<svg xmlns="http://www.w3.org/2000/svg" viewBox="0 0 24 24"><path d="M23.5 17l-5 5-3.5-3.5 1.5-1.5 2 2 3.5-3.5 1.5 1.5m-10.4 2.9c-.4.1-.7.1-1.1.1-4.4 0-8-3.6-8-8s3.6-8 8-8 8 3.6 8 8c0 .4 0 .7-.1 1.1.7.1 1.3.3 1.9.6.1-.6.2-1.1.2-1.7 0-5.5-4.5-10-10-10S2 6.5 2 12s4.5 10 10 10c.6 0 1.2-.1 1.7-.2-.3-.5-.5-1.2-.6-1.9m2.5-5.8l-3.1-1.8V7H11v6l3.5 2.1c.3-.4.7-.7 1.1-1z"/></svg>

<?xml version="1.0" encoding="UTF-8"?><!DOCTYPE svg PUBLIC "-//W3C//DTD SVG 1.1//EN" "http://www.w3.org/Graphics/SVG/1.1/DTD/svg11.dtd"><svg xmlns="http://www.w3.org/2000/svg" xmlns:xlink="http://www.w3.org/1999/xlink" version="1.1" id="mdi-clock-check-outline" width="24" height="24" viewBox="0 0 24 24"><path d="M23.5 17L18.5 22L15 18.5L16.5 17L18.5 19L22 15.5L23.5 17M13.1 19.9C12.7 20 12.4 20 12 20C7.6 20 4 16.4 4 12S7.6 4 12 4 20 7.6 20 12C20 12.4 20 12.7 19.9 13.1C20.6 13.2 21.2 13.4 21.8 13.7C21.9 13.1 22 12.6 22 12C22 6.5 17.5 2 12 2S2 6.5 2 12C2 17.5 6.5 22 12 22C12.6 22 13.2 21.9 13.7 21.8C13.4 21.3 13.2 20.6 13.1 19.9M15.6 14.1L12.5 12.3V7H11V13L14.5 15.1C14.8 14.7 15.2 14.4 15.6 14.1Z" /></svg>
